X:1     %Music
T:The Huron Indian Carol
B:Singing Together, Autumn 1984, BBC Publications
C:St. Jean de Brebeuf.  English lyrics J.E. Middleton.
F:http://www.folkinfo.org/songs
M:2/2     %Meter
L:1/8     %
K:C
E2 |A2 B2 c2 d2 |c2 B2 A2 G2 |A2 A2 B2 G2 | A6
w:'Twas in the moon of win-ter-time when all the birds had fled,
E2 |A2 B2 c2 d2 |c2 B2 A2 G2 |A2 c2 B2 G2 | A6
w:That might-y Git-chi Man-i-tou sent an-gel choirs in-stead.
A2 |e2 e2 B2 c2 |d3 c B2 B2 |c2 B2 A2 A2 | B3 A (A2G2) |
w:Be-fore their light the stars grew dim, and won-d'ring hun-ters heard the hymn_ 
E2 A2 A4 |G2 F2 E4 |A4 G2 E2 | A4 A2 B2 |c2 d2 e2 E2 |A4-A4|]
w:Je-sus, your King is born! Je-sus is born! In ex-cel-sis glo-ri-a! *